X:1
T:Der Mond ist aufgegangen
T:Der Mond ist aufgegangen
T:Abendlied
T:Melodie: Johann Abraham Peter Schulz
T:Text: Matthias Claudius 1779
C:Johann Abraham Peter Schulz 1790
Z:Matthias Claudius 1779
L:1/8
M:4/4
K:D
V:1 treble nm="Piano" snm="Pno."
V:1
 D2 | E2 D2 G2 F2 | E4 !breath!D2 F2 | F2 F2 B2 A2 | G4 !breath!F2 F2 | F2 F2 G2 F2 | E4 z2 D2 | %7
w: 1. Der|Mond ist auf- ge-|gan- gen, die|gold- nen Stern- lein|pran- gen am|Him- mel hell und|klar. Der|
 E2 D2 G2 F2 | E4 !breath!D2 F2 | F2 F2 B2 A2 | G4 !breath!F2 F2 | F2 F2 G2 F2 | E2 E2 D2 || %13
w: Wald steht schwarz und|schwei- get und|aus den Wie- sen|stei- get der|wei- ße Ne- bel|wun- der- bar.|
[K:Eb] E2 | F2 E2 A2 G2 | F4 !breath!E2 G2 | G2 G2 c2 B2 | A4 !breath!G2 G2 | G2 G2 A2 G2 | %19
w: 2. Wie|ist die Welt so|stil- le und|in der Dämm- rung|Hül- le so|trau- lich und so|
 F4 z2 E2 | F2 E2 A2 G2 | F4 !breath!E2 G2 | G2 G2 c2 B2 | A4 !breath!G2 G2 | G2 G2 A2 G2 | %25
w: hold als|ei- ne stil- le|Kam- mer, wo|ihr des Ta- ges|Jam- mer ver-|schla- fen und ver-|
 F2 F2 E2 ||[K:E] E2 | F2 E2 A2 G2 | F4 !breath!E2 G2 | G2 G2 c2 B2 | A4 !breath!G2 G2 | %31
w: ges- sen sollt.|3. Seht|ihr den Mond dort|ste- hen? Er|ist nur halb zu|se- hen und|
 G2 G2 A2 G2 | F4 z2 E2 | F2 E2 A2 G2 | F4 !breath!E2 G2 | G2 G2 c2 B2 | A4 !breath!G2 G2 | %37
w: ist doch rund und|schön. So|sind wohl man- che|Sa- chen, die|wir ge- trost be-|la- chen, weil|
 G2 G2 A2 G2 | F2 F2 E2 ||[K:F] F2 | G2 F2 B2 A2 | G4 !breath!F2 A2 | A2 A2 d2 c2 | %43
w: uns- re Au- gen|sie nicht sehn.|4. Wir|stol- zen Men- schen-|kin- der sind|ei- tel ar- me|
 B4 !breath!A2 A2 | A2 A2 B2 A2 | G4 z2 F2 | G2 F2 B2 A2 | G4 !breath!F2 A2 | A2 A2 d2 c2 | %49
w: Sün- der und|wis- sen gar nicht|viel. Wir|spin- nen Luft- ge-|spins- te und|su- chen vie- le|
 B4 !breath!A2 A2 | A2 A2 B2 A2 | G2 G2 F2 ||[K:G] G2 | A2 G2 c2 B2 | A4 !breath!G2 B2 | %55
w: Küns- te und|kom- men wei- ter|von dem Ziel.|5. Gott,|lass dein Heil uns|schau- en, auf|
 B2 B2 e2 d2 | c4 !breath!B2 B2 | B2 B2 c2 B2 | A4 z2 G2 | A2 G2 c2 B2 | A4 !breath!G2 B2 | %61
w: nichts Ver- gäng- lichs|trau- en, nicht|Ei- tel- keit uns|freun; lass|uns ein- fäl- tig|wer- den und|
 B2 B2 e2 d2 | c4 !breath!B2 B2 | B2 B2 c2 B2 | A2 A2 G2 ||[K:Ab] A2 | B2 A2 d2 c2 | %67
w: vor dir hier auf|Er- den wie|Kin- der fromm und|fröh- lich sein.|6. Wollst|end- lich son- der|
 B4 !breath!A2 c2 | c2 c2 f2 e2 | d4 !breath!c2 c2 | c2 c2 d2 c2 | B4 z2 A2 | B2 A2 d2 c2 | %73
w: Grä- men aus|die- ser Welt uns|neh- men durch|ei- nen sanf- ten|Tod; und|wenn du uns ge-|
 B4 !breath!A2 c2 | c2 c2 f2 e2 | d4 !breath!c2 c2 | c2 c2 d2 c2 | B2 B2 A2 ||[K:A] A2 | %79
w: nom- men, lass|uns' in Him- mel|kom- men, du|un- ser Herr und|un- ser Gott.|7. So|
 B2 A2"_*""_*) modernisierte Fassung" d2 c2 | B4 !breath!A2 c2 | c2 c2 f2 e2 | d4 !breath!c2 c2 | %83
w: legt euch, Schwes- tern,|Brü- der, in|Got- tes Na- men|nie- der; kalt|
 c2 c2 d2 c2 | B4 z2 A2 | B2 A2 d2 c2 | B4 !breath!A2 c2 | c2 c2 f2 e2 | d4 !breath!c2 c2 | %89
w: ist der A- bend-|hauch. Ver-|schon uns, Gott, mit|Stra- fen und|lass uns ru- hig|schla- fen. Und|
 c2 c2 d2 c2 | B2 B2 A2 |] %91
w: un- sern kran- ken|Nach- barn auch.|

